X:1
T: Mrs. Hugh Lumsden of Piteaple's Strathspey
C:William Marshall
R:Strathspey
Q: 128
K:A
M:4/4
L:1/16
|:B2|A2Bc BAGF EDCB, A,2C2|E3G Ac3 B2B,2 B,2B2|A2Bc BAGF EDCD E2A2|c3e fgaf e2c2 c2B2|
A2Bc BAGF EDCB, A,2C2|E3G Ac3 B2B,2 B,2B2|A2Bc BAGF EDCD E2A2|c3e fgaf e2c2 c2cd|
e2c2 A2e2 a3b a2f2|fedc dcBA cB3 B2cd|e2c2 A2e2 a3b a2c2|d2b2 B2g2 a2A2 A2cd|
e2c2 A2E2 C2E2 A,2c2|B3c dcBA B2F2 F2B2|A2Bc A3E E3F A2B2|c3e fgaf e2c2 c2:|
